svgs/sharp-regular/unlock.svg

<svg xmlns="http://www.w3.org/2000/svg" viewBox="0 0 448 512"><!--! Font Awesome Pro 6.6.0 by @fontawesome - https://fontawesome.com License - https://fontawesome.com/license (Commercial License) Copyright 2024 Fonticons, Inc. --><path d="M144 128c0-44.2 35.8-80 80-80c35.6 0 65.8 23.2 76.1 55.4l45.7-14.8C329.2 37.2 281 0 224 0C153.3 0 96 57.3 96 128l0 64-48 0L0 192l0 48L0 464l0 48 48 0 352 0 48 0 0-48 0-224 0-48-48 0-256 0 0-64zM48 464l0-224 352 0 0 224L48 464z"/></svg>

<svg xmlns="http://www.w3.org/2000/svg" viewBox="0 0 448 512"><!--! Font Awesome Pro 6.4.2 by @fontawesome - https://fontawesome.com License - https://fontawesome.com/license (Commercial License) Copyright 2023 Fonticons, Inc. --><path d="M144 128c0-44.2 35.8-80 80-80c35.6 0 65.8 23.2 76.1 55.4l45.7-14.8C329.2 37.2 281 0 224 0C153.3 0 96 57.3 96 128v64H48 0v48V464v48H48 400h48V464 240 192H400 144V128zM48 464V240H400V464H48z"/></svg>
